X:5043
Q: 1/4=86
T: Most jövök gyuláról
M:4/4
L:1/4
K: F
B>B AF | G2 g2 |
f<f e<c | d2 d/z/ z |
fg (3:2:2 gf2 | g/_e/ (3:2:2 d/c c F |
B<B AF | G2 G z |


